svgs/duotone/grid.svg

<svg xmlns="http://www.w3.org/2000/svg" viewBox="0 0 448 512"><!--! Font Awesome Pro 6.6.0 by @fontawesome - https://fontawesome.com License - https://fontawesome.com/license (Commercial License) Copyright 2024 Fonticons, Inc. --><path class="fa-secondary" style="fill:var(--fa-secondary-color,inherit);opacity:var(--fa-secondary-opacity,.4);" d="M0 232l0 48c0 22.1 17.9 40 40 40l48 0c22.1 0 40-17.9 40-40l0-48c0-22.1-17.9-40-40-40l-48 0c-22.1 0-40 17.9-40 40zM160 72l0 48c0 22.1 17.9 40 40 40l48 0c22.1 0 40-17.9 40-40l0-48c0-22.1-17.9-40-40-40l-48 0c-22.1 0-40 17.9-40 40zm0 320l0 48c0 22.1 17.9 40 40 40l48 0c22.1 0 40-17.9 40-40l0-48c0-22.1-17.9-40-40-40l-48 0c-22.1 0-40 17.9-40 40zM320 232l0 48c0 22.1 17.9 40 40 40l48 0c22.1 0 40-17.9 40-40l0-48c0-22.1-17.9-40-40-40l-48 0c-22.1 0-40 17.9-40 40z"/><path class="fa-primary" style="fill:var(--fa-primary-color,inherit);opacity:var(--fa-primary-opacity,1);" d="M0 72C0 49.9 17.9 32 40 32l48 0c22.1 0 40 17.9 40 40l0 48c0 22.1-17.9 40-40 40l-48 0c-22.1 0-40-17.9-40-40L0 72zM0 392c0-22.1 17.9-40 40-40l48 0c22.1 0 40 17.9 40 40l0 48c0 22.1-17.9 40-40 40l-48 0c-22.1 0-40-17.9-40-40l0-48zM288 232l0 48c0 22.1-17.9 40-40 40l-48 0c-22.1 0-40-17.9-40-40l0-48c0-22.1 17.9-40 40-40l48 0c22.1 0 40 17.9 40 40zM320 72c0-22.1 17.9-40 40-40l48 0c22.1 0 40 17.9 40 40l0 48c0 22.1-17.9 40-40 40l-48 0c-22.1 0-40-17.9-40-40l0-48zM448 392l0 48c0 22.1-17.9 40-40 40l-48 0c-22.1 0-40-17.9-40-40l0-48c0-22.1 17.9-40 40-40l48 0c22.1 0 40 17.9 40 40z"/></svg>

<svg xmlns="http://www.w3.org/2000/svg" viewBox="0 0 448 512"><!--! Font Awesome Pro 6.4.2 by @fontawesome - https://fontawesome.com License - https://fontawesome.com/license (Commercial License) Copyright 2023 Fonticons, Inc. --><path class="fa-primary" style="fill:var(--fa-primary-color,inherit);opacity:var(--fa-primary-opacity,1);" d="M0 72C0 49.9 17.9 32 40 32H88c22.1 0 40 17.9 40 40v48c0 22.1-17.9 40-40 40H40c-22.1 0-40-17.9-40-40V72zM0 392c0-22.1 17.9-40 40-40H88c22.1 0 40 17.9 40 40v48c0 22.1-17.9 40-40 40H40c-22.1 0-40-17.9-40-40V392zM288 232v48c0 22.1-17.9 40-40 40H200c-22.1 0-40-17.9-40-40V232c0-22.1 17.9-40 40-40h48c22.1 0 40 17.9 40 40zM320 72c0-22.1 17.9-40 40-40h48c22.1 0 40 17.9 40 40v48c0 22.1-17.9 40-40 40H360c-22.1 0-40-17.9-40-40V72zM448 392v48c0 22.1-17.9 40-40 40H360c-22.1 0-40-17.9-40-40V392c0-22.1 17.9-40 40-40h48c22.1 0 40 17.9 40 40z"/><path class="fa-secondary" style="fill:var(--fa-secondary-color,inherit);opacity:var(--fa-secondary-opacity,.4);" d="M200 32c-22.1 0-40 17.9-40 40v48c0 22.1 17.9 40 40 40h48c22.1 0 40-17.9 40-40V72c0-22.1-17.9-40-40-40H200zM40 192c-22.1 0-40 17.9-40 40v48c0 22.1 17.9 40 40 40H88c22.1 0 40-17.9 40-40V232c0-22.1-17.9-40-40-40H40zM160 392v48c0 22.1 17.9 40 40 40h48c22.1 0 40-17.9 40-40V392c0-22.1-17.9-40-40-40H200c-22.1 0-40 17.9-40 40zM360 192c-22.1 0-40 17.9-40 40v48c0 22.1 17.9 40 40 40h48c22.1 0 40-17.9 40-40V232c0-22.1-17.9-40-40-40H360z"/></svg>
